images/q4inp1.svg

<svg width="270" height="175" viewBox="0 0 270 175" fill="none" xmlns="http://www.w3.org/2000/svg">
<rect width="270" height="175" transform="matrix(-1 0 0 1 270 0)" fill="white"/>
<path d="M181.739 53H194V121H181.739V53Z" fill="#D0D0D0"/>
<path d="M75 95.6809H87.2606V120.277H75V95.6809Z" fill="#AAAAAA"/>
<path d="M75 95.6809H87.2606V120.277H75V95.6809Z" fill="url(#paint0_linear_311_258)"/>
<path d="M93.0303 88.4468H105.291V120.277H93.0303V88.4468Z" fill="#AAAAAA"/>
<path d="M93.0303 88.4468H105.291V120.277H93.0303V88.4468Z" fill="url(#paint1_linear_311_258)"/>
<path d="M110.339 81.2128H123.321V120.277H110.339V81.2128Z" fill="#AAAAAA"/>
<path d="M110.339 81.2128H123.321V120.277H110.339V81.2128Z" fill="url(#paint2_linear_311_258)"/>
<path d="M128.37 73.9787H140.63V120.277H128.37V73.9787Z" fill="#D0D0D0"/>
<path d="M145.679 66.7447H158.661V120.277H145.679V66.7447Z" fill="#D0D0D0"/>
<path d="M163.709 59.5106H175.97V120.277H163.709V59.5106Z" fill="#D0D0D0"/>
<defs>
<linearGradient id="paint0_linear_311_258" x1="194" y1="96.4042" x2="75" y2="96.4042" gradientUnits="userSpaceOnUse">
<stop stop-color="#40C1FF"/>
<stop offset="1" stop-color="#959595"/>
</linearGradient>
<linearGradient id="paint1_linear_311_258" x1="194" y1="96.4042" x2="75" y2="96.4042" gradientUnits="userSpaceOnUse">
<stop stop-color="#40C1FF"/>
<stop offset="1" stop-color="#959595"/>
</linearGradient>
<linearGradient id="paint2_linear_311_258" x1="194" y1="96.4042" x2="75" y2="96.4042" gradientUnits="userSpaceOnUse">
<stop stop-color="#40C1FF"/>
<stop offset="1" stop-color="#959595"/>
</linearGradient>
</defs>
</svg>

<svg width="270" height="175" fill="none" xmlns="http://www.w3.org/2000/svg"><path fill="#fff" d="M270 0H0v175h270z"/><path d="M181.739 53H194v68h-12.261V53Z" fill="#D0D0D0"/><path d="M75 95.68h12.26v24.597H75V95.681Z" fill="#AAA"/><path d="M75 95.68h12.26v24.597H75V95.681Z" fill="url(#a)"/><path d="M93.03 88.447h12.261v31.83h-12.26v-31.83Z" fill="#AAA"/><path d="M93.03 88.447h12.261v31.83h-12.26v-31.83Z" fill="url(#b)"/><path d="M110.339 81.213h12.982v39.064h-12.982V81.213Z" fill="#AAA"/><path d="M110.339 81.213h12.982v39.064h-12.982V81.213Z" fill="url(#c)"/><path d="M128.37 73.979h12.26v46.298h-12.26V73.979ZM145.679 66.745h12.982v53.532h-12.982V66.745ZM163.709 59.51h12.261v60.767h-12.261V59.511Z" fill="#D0D0D0"/><defs><linearGradient id="a" x1="194" y1="96.404" x2="75" y2="96.404" gradientUnits="userSpaceOnUse"><stop stop-color="#40C1FF"/><stop offset="1" stop-color="#959595"/></linearGradient><linearGradient id="b" x1="194" y1="96.404" x2="75" y2="96.404" gradientUnits="userSpaceOnUse"><stop stop-color="#40C1FF"/><stop offset="1" stop-color="#959595"/></linearGradient><linearGradient id="c" x1="194" y1="96.404" x2="75" y2="96.404" gradientUnits="userSpaceOnUse"><stop stop-color="#40C1FF"/><stop offset="1" stop-color="#959595"/></linearGradient></defs></svg>
